_includes/icons/color-shop.svg

<svg fill="#666" height="50" viewBox="0 0 48 48" width="50" xmlns="http://www.w3.org/2000/svg"><path d="m5 19h38v19h-38z" fill="#cfd8dc"/><path d="m5 38h38v4h-38z" fill="#b0bec5"/><path d="m27 24h12v18h-12z" fill="#455a64"/><path d="m9 24h14v11h-14z" fill="#e3f2fd"/><path d="m10 25h12v9h-12z" fill="#1e88e5"/><path d="m36.5 33.5c-.300781 0-.5.199219-.5.5v2c0 .300781.199219.5.5.5s.5-.199219.5-.5v-2c0-.300781-.199219-.5-.5-.5z" fill="#90a4ae"/><path d="m27 19c0 1.65625-1.34375 3-3 3s-3-1.34375-3-3 1.34375-3 3-3 3 1.34375 3 3z" fill="#558b2f"/><path d="m39 19c0 1.65625-1.34375 3-3 3s-3-1.34375-3-3 1.34375-3 3-3 3 1.34375 3 3z" fill="#558b2f"/><path d="m15 19c0 1.65625-1.34375 3-3 3s-3-1.34375-3-3 1.34375-3 3-3 3 1.34375 3 3z" fill="#558b2f"/><g fill="#7cb342"><path d="m40 6h-32c-1.101562 0-2 .898438-2 2v3h36v-3c0-1.101562-.898437-2-2-2z"/><path d="m21 11h6v8h-6z"/><path d="m37 11h-5l1 8h6z"/><path d="m11 11h5l-1 8h-6z"/></g><g fill="#ffa000"><path d="m33 19c0 1.65625-1.34375 3-3 3s-3-1.34375-3-3 1.34375-3 3-3 3 1.34375 3 3z"/><path d="m45 19c0 1.699219-1.300781 3-3 3s-3-1.300781-3-3 1.300781-3 3-3z"/><path d="m21 19c0 1.65625-1.34375 3-3 3s-3-1.34375-3-3 1.34375-3 3-3 3 1.34375 3 3z"/><path d="m3 19c0 1.699219 1.300781 3 3 3s3-1.300781 3-3-1.300781-3-3-3z"/></g><path d="m32 11h-5v8h6z" fill="#ffc107"/><path d="m42 11h-5l2 8h6z" fill="#ffc107"/><path d="m16 11h5v8h-6z" fill="#ffc107"/><path d="m6 11h5l-2 8h-6z" fill="#ffc107"/></svg>

<svg xmlns="http://www.w3.org/2000/svg" viewBox="0 0 48 48" width="50" height="50" fill="#666"><path d="M 5 19 L 43 19 L 43 38 L 5 38 Z" fill="#cfd8dc"/><path d="M 5 38 L 43 38 L 43 42 L 5 42 Z" fill="#b0bec5"/><path d="M 27 24 L 39 24 L 39 42 L 27 42 Z" fill="#455a64"/><path d="M 9 24 L 23 24 L 23 35 L 9 35 Z" fill="#e3f2fd"/><path d="M 10 25 L 22 25 L 22 34 L 10 34 Z" fill="#1e88e5"/><path d="M 36.5 33.5 C 36.199219 33.5 36 33.699219 36 34 L 36 36 C 36 36.300781 36.199219 36.5 36.5 36.5 C 36.800781 36.5 37 36.300781 37 36 L 37 34 C 37 33.699219 36.800781 33.5 36.5 33.5 Z" fill="#90a4ae"/><path d="M 27 19 C 27 20.65625 25.65625 22 24 22 C 22.34375 22 21 20.65625 21 19 C 21 17.34375 22.34375 16 24 16 C 25.65625 16 27 17.34375 27 19 Z" fill="#558b2f"/><path d="M 39 19 C 39 20.65625 37.65625 22 36 22 C 34.34375 22 33 20.65625 33 19 C 33 17.34375 34.34375 16 36 16 C 37.65625 16 39 17.34375 39 19 Z" fill="#558b2f"/><path d="M 15 19 C 15 20.65625 13.65625 22 12 22 C 10.34375 22 9 20.65625 9 19 C 9 17.34375 10.34375 16 12 16 C 13.65625 16 15 17.34375 15 19 Z" fill="#558b2f"/><path d="M 40 6 L 8 6 C 6.898438 6 6 6.898438 6 8 L 6 11 L 42 11 L 42 8 C 42 6.898438 41.101563 6 40 6 Z" fill="#7cb342"/><path d="M 21 11 L 27 11 L 27 19 L 21 19 Z" fill="#7cb342"/><path d="M 37 11 L 32 11 L 33 19 L 39 19 Z" fill="#7cb342"/><path d="M 11 11 L 16 11 L 15 19 L 9 19 Z" fill="#7cb342"/><path d="M 33 19 C 33 20.65625 31.65625 22 30 22 C 28.34375 22 27 20.65625 27 19 C 27 17.34375 28.34375 16 30 16 C 31.65625 16 33 17.34375 33 19 Z" fill="#ffa000"/><path d="M 45 19 C 45 20.699219 43.699219 22 42 22 C 40.300781 22 39 20.699219 39 19 C 39 17.300781 40.300781 16 42 16 Z" fill="#ffa000"/><path d="M 21 19 C 21 20.65625 19.65625 22 18 22 C 16.34375 22 15 20.65625 15 19 C 15 17.34375 16.34375 16 18 16 C 19.65625 16 21 17.34375 21 19 Z" fill="#ffa000"/><path d="M 3 19 C 3 20.699219 4.300781 22 6 22 C 7.699219 22 9 20.699219 9 19 C 9 17.300781 7.699219 16 6 16 Z" fill="#ffa000"/><path d="M 32 11 L 27 11 L 27 19 L 33 19 Z" fill="#ffc107"/><path d="M 42 11 L 37 11 L 39 19 L 45 19 Z" fill="#ffc107"/><path d="M 16 11 L 21 11 L 21 19 L 15 19 Z" fill="#ffc107"/><path d="M 6 11 L 11 11 L 9 19 L 3 19 Z" fill="#ffc107"/></svg>
